assets/MarketChannelLogos/Razorpay.svg

<svg xmlns="http://www.w3.org/2000/svg" width="596" height="596" fill="none"><g clip-path="url(#a)"><path fill="#fff" d="M297.6 595.3C133.3 595.3 0 462 0 297.6 0 133.3 133.3 0 297.6 0 462 0 595.3 133.3 595.3 297.6c0 164.4-133.3 297.7-297.7 297.7"/><path fill="#3395FF" d="M79.167 272.914 75 288.293l23.75-15.462L83.25 331h15.833L122 245"/><path fill="#072654" d="M53.61 306.32 47 330.928h32.546l13.303-50.055-39.24 25.447m112.95-21.584c-.753 2.94-2.343 5.123-4.602 6.551-2.259 1.428-5.438 2.1-9.622 2.1h-13.135l4.601-17.217h13.136c4.1 0 6.944.672 8.45 2.1 1.506 1.427 1.925 3.527 1.172 6.466m13.554-.336c1.673-6.214 1.004-11.002-2.092-14.361-3.012-3.359-8.367-5.039-16.064-5.039h-29.283l-17.654 66.012h14.223l7.112-26.623h9.287c2.092 0 3.765.336 4.936 1.007 1.172.672 1.925 1.848 2.092 3.612l2.51 22.004h15.227l-2.51-20.492c-.502-4.536-2.593-7.223-6.275-8.063 4.686-1.344 8.618-3.611 11.714-6.719 3.43-3.191 5.689-7.054 6.777-11.338m34.554 22.928c-1.171 4.451-3.012 7.811-5.522 10.246-2.51 2.352-5.438 3.528-8.869 3.528-3.514 0-5.856-1.176-7.111-3.444-1.255-2.351-1.339-5.627-.168-10.078 1.172-4.367 3.012-7.81 5.606-10.33 2.594-2.436 5.606-3.695 9.036-3.695 3.43 0 5.773 1.175 7.028 3.611 1.171 2.436 1.255 5.795 0 10.162m6.275-23.348-1.757 6.635c-.753-2.435-2.259-4.283-4.434-5.711-2.176-1.427-4.937-2.099-8.2-2.099-4.016 0-7.864 1.007-11.546 3.107-3.681 2.1-6.944 5.039-9.705 8.734-2.761 3.78-4.769 8.063-6.108 12.85-1.255 4.871-1.506 9.07-.753 12.766.753 3.695 2.427 6.55 5.02 8.482 2.594 2.016 5.941 2.94 9.957 2.94 3.179 0 6.442-.672 9.287-2.016 2.928-1.344 5.438-3.191 7.53-5.627l-1.841 6.971h13.721l12.55-47.032zm63.168 0h-39.992l-2.761 10.499h23.259l-30.789 26.707-2.594 9.826h41.248l2.761-10.498H250.31l31.208-27.043m37.817 13.857c-1.255 4.619-3.096 8.147-5.522 10.33-2.426 2.268-5.355 3.444-8.785 3.444-7.195 0-9.538-4.62-7.112-13.774 1.255-4.535 3.096-7.978 5.522-10.33 2.427-2.352 5.439-3.443 8.953-3.443 3.43 0 5.773 1.175 6.944 3.443 1.255 2.268 1.255 5.711 0 10.33m8.032-21.5c-3.179-2.016-7.195-2.939-12.132-2.939-5.02 0-9.621 1.007-13.888 2.939-4.267 1.932-7.949 4.871-10.877 8.567-3.012 3.695-5.187 8.062-6.442 13.017-1.339 4.955-1.423 9.238-.419 12.934 1.004 3.695 3.096 6.55 6.275 8.482 3.18 2.016 7.279 2.94 12.299 2.94 4.937 0 9.538-1.008 13.722-2.94 4.183-2.015 7.781-4.787 10.793-8.566 3.012-3.696 5.103-8.063 6.442-13.018 1.339-4.955 1.506-9.238.502-13.017-.92-3.696-3.012-6.551-6.275-8.399m49.112 10.75 3.514-12.766c-1.171-.587-2.761-.923-4.685-.923-3.179 0-6.191.756-9.12 2.351-2.51 1.344-4.601 3.276-6.442 5.627l1.841-6.887h-13.805l-12.634 47.032h13.972l6.526-24.608c.921-3.611 2.678-6.383 5.188-8.398 2.426-2.016 5.522-3.024 9.287-3.024 2.175 0 4.35.588 6.358 1.596m38.822 10.918c-1.172 4.367-3.012 7.727-5.439 10.078-2.426 2.352-5.438 3.444-8.868 3.444-3.431 0-5.773-1.176-7.028-3.528-1.255-2.351-1.339-5.711-.084-10.162 1.171-4.451 3.012-7.894 5.522-10.246 2.51-2.352 5.522-3.611 8.952-3.611 3.431 0 5.69 1.259 6.861 3.695 1.171 2.52 1.171 5.963.084 10.33m9.705-21.668c-2.594-2.099-5.857-3.107-9.873-3.107-3.514 0-6.86.756-10.04 2.435-3.179 1.596-5.773 3.78-7.697 6.551l.084-.336 2.342-7.475h-13.637l-3.431 13.018-.083.42L368.28 351h13.972l7.196-26.959c.753 2.436 2.175 4.283 4.434 5.627 2.259 1.344 4.936 2.016 8.199 2.016 4.016 0 7.949-1.008 11.63-2.94 3.681-1.932 6.861-4.787 9.538-8.482 2.677-3.696 4.685-7.895 6.024-12.766 1.339-4.787 1.59-9.154.837-12.85-.837-3.779-2.51-6.718-5.104-8.818m46.268 21.5c-1.172 4.451-3.012 7.811-5.522 10.162-2.427 2.352-5.439 3.528-8.869 3.528-3.514 0-5.94-1.176-7.112-3.444-1.255-2.351-1.338-5.627-.167-10.078 1.171-4.367 3.012-7.81 5.606-10.33 2.593-2.52 5.605-3.695 9.036-3.695 3.43 0 5.773 1.175 7.028 3.527 1.171 2.436 1.171 5.879 0 10.33m6.275-23.348-1.757 6.635c-.753-2.435-2.259-4.283-4.435-5.711-2.259-1.427-4.936-2.099-8.199-2.099-4.016 0-7.865 1.007-11.546 3.107-3.681 2.1-6.944 4.955-9.705 8.734-2.761 3.78-4.769 8.063-6.108 12.85-1.255 4.871-1.506 9.07-.753 12.766.753 3.695 2.426 6.467 5.02 8.482 2.594 1.932 5.94 2.94 9.956 2.94 3.263 0 6.359-.672 9.287-2.016a23.635 23.635 0 0 0 7.53-5.627l-1.84 6.971h13.721l12.55-47.032zm71.451 0H535.446l-2.259 3.108-.586.756-.251.336-17.821 24.943-3.681-29.143H496.29l7.363 44.344L487.338 351h14.558l3.932-5.627c.084-.168.251-.336.335-.504l4.601-6.551.168-.168 20.665-29.394z"/></g><defs><clipPath id="a"><path fill="#fff" d="M0 0h595.3v595.3H0z"/></clipPath></defs></svg>

<svg width="596" height="596" viewBox="0 0 596 596" fill="none" xmlns="http://www.w3.org/2000/svg">
<g clip-path="url(#clip0_57_9)">
<path d="M297.6 595.3C133.3 595.3 0 462 0 297.6C0 133.3 133.3 0 297.6 0C462 0 595.3 133.3 595.3 297.6C595.3 462 462 595.3 297.6 595.3Z" fill="white"/>
<path d="M79.1667 272.914L75 288.293L98.75 272.831L83.25 331H99.0833L122 245" fill="#3395FF"/>
<path d="M53.6097 306.32L47 330.928H79.5463L92.8493 280.873L53.6097 306.32ZM166.56 284.736C165.807 287.676 164.217 289.859 161.958 291.287C159.699 292.715 156.52 293.387 152.336 293.387H139.201L143.802 276.17H156.938C161.038 276.17 163.882 276.842 165.388 278.27C166.894 279.697 167.313 281.797 166.56 284.736ZM180.114 284.4C181.787 278.186 181.118 273.398 178.022 270.039C175.01 266.68 169.655 265 161.958 265H132.675L115.021 331.012H129.244L136.356 304.389H145.643C147.735 304.389 149.408 304.725 150.579 305.396C151.751 306.068 152.504 307.244 152.671 309.008L155.181 331.012H170.408L167.898 310.52C167.396 305.984 165.305 303.297 161.623 302.457C166.309 301.113 170.241 298.846 173.337 295.738C176.767 292.547 179.026 288.684 180.114 284.4ZM214.668 307.328C213.497 311.779 211.656 315.139 209.146 317.574C206.636 319.926 203.708 321.102 200.277 321.102C196.763 321.102 194.421 319.926 193.166 317.658C191.911 315.307 191.827 312.031 192.998 307.58C194.17 303.213 196.01 299.77 198.604 297.25C201.198 294.814 204.21 293.555 207.64 293.555C211.07 293.555 213.413 294.73 214.668 297.166C215.839 299.602 215.923 302.961 214.668 307.328ZM220.943 283.98L219.186 290.615C218.433 288.18 216.927 286.332 214.752 284.904C212.576 283.477 209.815 282.805 206.552 282.805C202.536 282.805 198.688 283.812 195.006 285.912C191.325 288.012 188.062 290.951 185.301 294.646C182.54 298.426 180.532 302.709 179.193 307.496C177.938 312.367 177.687 316.566 178.44 320.262C179.193 323.957 180.867 326.812 183.46 328.744C186.054 330.76 189.401 331.684 193.417 331.684C196.596 331.684 199.859 331.012 202.704 329.668C205.632 328.324 208.142 326.477 210.234 324.041L208.393 331.012H222.114L234.664 283.98H220.943ZM284.111 283.98H244.119L241.358 294.479H264.617L233.828 321.186L231.234 331.012H272.482L275.243 320.514H250.31L281.518 293.471M319.335 307.328C318.08 311.947 316.239 315.475 313.813 317.658C311.387 319.926 308.458 321.102 305.028 321.102C297.833 321.102 295.49 316.482 297.916 307.328C299.171 302.793 301.012 299.35 303.438 296.998C305.865 294.646 308.877 293.555 312.391 293.555C315.821 293.555 318.164 294.73 319.335 296.998C320.59 299.266 320.59 302.709 319.335 307.328ZM327.367 285.828C324.188 283.812 320.172 282.889 315.235 282.889C310.215 282.889 305.614 283.896 301.347 285.828C297.08 287.76 293.398 290.699 290.47 294.395C287.458 298.09 285.283 302.457 284.028 307.412C282.689 312.367 282.605 316.65 283.609 320.346C284.613 324.041 286.705 326.896 289.884 328.828C293.064 330.844 297.163 331.768 302.183 331.768C307.12 331.768 311.721 330.76 315.905 328.828C320.088 326.813 323.686 324.041 326.698 320.262C329.71 316.566 331.801 312.199 333.14 307.244C334.479 302.289 334.646 298.006 333.642 294.227C332.722 290.531 330.63 287.676 327.367 285.828ZM376.479 296.578L379.993 283.812C378.822 283.225 377.232 282.889 375.308 282.889C372.129 282.889 369.117 283.645 366.188 285.24C363.678 286.584 361.587 288.516 359.746 290.867L361.587 283.98H357.571H347.782L335.148 331.012H349.12L355.646 306.404C356.567 302.793 358.324 300.021 360.834 298.006C363.26 295.99 366.356 294.982 370.121 294.982C372.296 294.982 374.471 295.57 376.479 296.578ZM415.301 307.496C414.129 311.863 412.289 315.223 409.862 317.574C407.436 319.926 404.424 321.018 400.994 321.018C397.563 321.018 395.221 319.842 393.966 317.49C392.711 315.139 392.627 311.779 393.882 307.328C395.053 302.877 396.894 299.434 399.404 297.082C401.914 294.73 404.926 293.471 408.356 293.471C411.787 293.471 414.046 294.73 415.217 297.166C416.388 299.686 416.388 303.129 415.301 307.496ZM425.006 285.828C422.412 283.729 419.149 282.721 415.133 282.721C411.619 282.721 408.273 283.477 405.093 285.156C401.914 286.752 399.32 288.936 397.396 291.707L397.48 291.371L399.822 283.896H386.185L382.754 296.914L382.671 297.334L368.28 351H382.252L389.448 324.041C390.201 326.477 391.623 328.324 393.882 329.668C396.141 331.012 398.818 331.684 402.081 331.684C406.097 331.684 410.03 330.676 413.711 328.744C417.392 326.812 420.572 323.957 423.249 320.262C425.926 316.566 427.934 312.367 429.273 307.496C430.612 302.709 430.863 298.342 430.11 294.646C429.273 290.867 427.6 287.928 425.006 285.828ZM471.274 307.328C470.102 311.779 468.262 315.139 465.752 317.49C463.325 319.842 460.313 321.018 456.883 321.018C453.369 321.018 450.943 319.842 449.771 317.574C448.516 315.223 448.433 311.947 449.604 307.496C450.775 303.129 452.616 299.686 455.21 297.166C457.803 294.646 460.815 293.471 464.246 293.471C467.676 293.471 470.019 294.646 471.274 296.998C472.445 299.434 472.445 302.877 471.274 307.328ZM477.549 283.98L475.792 290.615C475.039 288.18 473.533 286.332 471.357 284.904C469.098 283.477 466.421 282.805 463.158 282.805C459.142 282.805 455.293 283.812 451.612 285.912C447.931 288.012 444.668 290.867 441.907 294.646C439.146 298.426 437.138 302.709 435.799 307.496C434.544 312.367 434.293 316.566 435.046 320.262C435.799 323.957 437.472 326.729 440.066 328.744C442.66 330.676 446.006 331.684 450.022 331.684C453.285 331.684 456.381 331.012 459.309 329.668C462.154 328.324 464.748 326.393 466.839 324.041L464.999 331.012H478.72L491.27 283.98H477.549ZM549 283.98H540.55C540.299 283.98 540.048 283.98 539.797 283.98H535.446L533.187 287.088L532.601 287.844L532.35 288.18L514.529 313.123L510.848 283.98H496.29L503.653 328.324L487.338 351H501.896L505.828 345.373C505.912 345.205 506.079 345.037 506.163 344.869L510.764 338.318L510.932 338.15L531.597 308.756L549 283.98Z" fill="#072654"/>
</g>
<defs>
<clipPath id="clip0_57_9">
<rect width="595.3" height="595.3" fill="white"/>
</clipPath>
</defs>
</svg>
